lib/brands/icons/marvel.svg

<svg xmlns="http://www.w3.org/2000/svg" fill="none" aria-hidden="true" viewBox="0 0 48 48"><g id="marvel-Icon"><path id="bg" fill="#1FB6FF" fill-rule="evenodd" d="M24 45C35.598 45 45 35.598 45 24C45 12.402 35.598 3 24 3C12.402 3 3 12.402 3 24C3 35.598 12.402 45 24 45Z" clip-rule="evenodd"/><path id="m" fill="white" fill-rule="evenodd" d="M21.907 19.3818C23.4447 19.3985 20.7375 27.3808 21.0282 30.851C21.3213 34.352 25.1952 33.344 24.9493 31.3285C24.5309 27.9022 26.8133 17.1657 29.1281 17.1657C30.7522 17.1657 27.3293 24.5672 28.0028 29.3068C28.4484 32.4426 32.493 31.3548 32.082 29.4955C30.7224 23.3422 34.935 17.4286 34.4629 13.2387C34.2564 11.4054 33.1539 10.5089 32.0511 10.5001C28.1899 10.4704 25.2073 18.3888 25.2073 18.3888C25.2073 18.3888 25.5178 13.8882 22.5169 13.723C17.9223 13.4698 13.3738 24.9687 13.5027 35.2361C13.5437 38.5116 17.6204 37.9537 17.4061 35.3422C17.0074 30.4854 19.7152 19.3583 21.907 19.3818V19.3818Z" clip-rule="evenodd"/></g></svg>

<svg xmlns="http://www.w3.org/2000/svg" fill="none" aria-hidden="true" viewBox="0 0 48 48"><path fill="#1FB6FF" fill-rule="evenodd" d="M24 45c11.598 0 21-9.402 21-21S35.598 3 24 3 3 12.402 3 24s9.402 21 21 21Z" clip-rule="evenodd"/><path fill="#fff" fill-rule="evenodd" d="M21.907 19.382c1.538.016-1.17 7.999-.879 11.469.293 3.501 4.167 2.493 3.921.477-.418-3.426 1.864-14.162 4.18-14.162 1.623 0-1.8 7.401-1.126 12.14.445 3.137 4.49 2.049 4.079.19-1.36-6.154 2.853-12.067 2.38-16.257-.206-1.834-1.308-2.73-2.41-2.739-3.862-.03-6.845 7.889-6.845 7.889s.31-4.5-2.69-4.666c-4.595-.253-9.143 11.246-9.014 21.513.04 3.276 4.117 2.718 3.903.106-.399-4.857 2.31-15.984 4.501-15.96Z" clip-rule="evenodd"/></svg>
